X:175
T:The man of the house
R:Reel
O:Ireland
B:O'Neill's 1398
S:O'Neill's 1398
Z:Transcription:Bob Safranek, minor arr., chords:Mike Long
M:C|
L:1/8
K:D
D|\
"Em"E2BE "G"GABG|"Em"E2BE "D"FDAF|"Em"E2BE "G"GABc|"D"dBBA "A"BE E:|\
z|\
"Em"efge "D"fgaf|"C"gfed "Em"eBB2|
"Em"efge "D"fgaf|"C"gfed "D"Beed|\
"Em"efge "D"fgaf|"C"gfed "D"efga|"G"bg"D"af "G"gfed|"D"eBBA "A"BE E|]
